packages/components/icons/assets/DeliveryOutline.svg

<svg viewBox="0 0 24 24" xmlns="http://www.w3.org/2000/svg" data-title="DeliveryOutline" fill="currentColor" stroke="none">
  <path fill-rule="evenodd" clip-rule="evenodd" d="M11.3161 16.3339H17.5629C18.8724 16.3339 19.9316 15.2845 19.9316 13.9852V7.79688C19.9316 6.49758 18.8724 5.44814 17.5629 5.44814H11.3161C10.0067 5.44814 8.94744 6.49758 8.94744 7.79688V13.9852C8.94744 15.2845 10.0067 16.3339 11.3161 16.3339ZM10.9157 7.79688C10.9157 7.572 11.0992 7.39709 11.3161 7.39709H17.5629C17.7881 7.39709 17.9633 7.58033 17.9633 7.79688V13.9852C17.9633 14.2101 17.7798 14.385 17.5629 14.385H11.3161C11.0909 14.385 10.9157 14.2018 10.9157 13.9852V7.79688Z"/>
  <path fill-rule="evenodd" clip-rule="evenodd" d="M21.7331 20.1819L20.0817 18.5161H20.0734C19.6313 18.0747 19.0392 17.8248 18.4137 17.8248H8.7306C8.57213 17.1752 8.22184 16.5755 7.70474 16.1174C7.42118 15.8675 7.0959 15.676 6.74561 15.526V4.35706C6.74561 3.7324 6.49541 3.13272 6.05337 2.69129C5.61134 2.24987 5.0025 2 4.37698 2H2.99249C2.44203 2.00833 2 2.44143 2 2.9828C2 3.52418 2.44203 3.95728 2.98415 3.95728H4.36864C4.47706 3.95728 4.57714 3.99892 4.65221 4.07388C4.72727 4.14884 4.76897 4.24879 4.76897 4.35706V15.3345C4.09341 15.4677 3.46789 15.7926 2.97581 16.2923C2.36697 16.917 2.02502 17.7582 2.02502 18.6327C2.02502 19.5072 2.36697 20.3401 2.97581 20.9731C3.58465 21.5978 4.41868 21.9726 5.30275 21.9976C6.18681 22.0309 7.03752 21.7227 7.6964 21.1397C8.11342 20.7649 8.41367 20.2985 8.60549 19.7821H18.397C18.4971 19.7821 18.5971 19.8237 18.6722 19.8987L20.3152 21.5561C20.6989 21.9393 21.3161 21.9476 21.7081 21.5645C22.0917 21.1897 22.1 20.5733 21.7164 20.1819H21.7331ZM5.37781 20.0486C5.01084 20.0319 4.66055 19.882 4.402 19.6155C4.14345 19.349 4.00166 18.9992 4.00166 18.6327C4.00166 18.2662 4.14345 17.9164 4.402 17.6499C4.66055 17.3834 5.01084 17.2335 5.37781 17.2168C5.74478 17.2001 6.11175 17.3334 6.38698 17.5749C6.66221 17.8165 6.82902 18.158 6.85404 18.5244C6.85404 18.5994 6.85404 18.666 6.85404 18.741C6.82902 19.1074 6.65387 19.4406 6.38698 19.6905C6.11175 19.932 5.75312 20.0653 5.37781 20.0486Z"/>
  <path fill-rule="evenodd" clip-rule="evenodd" d="M14.0934 12.9025H15.4779C16.02 12.9025 16.462 12.4694 16.462 11.928C16.462 11.3866 16.02 10.9535 15.4779 10.9535H14.0934C13.5513 10.9535 13.1092 11.3866 13.1092 11.928C13.1092 12.4694 13.5513 12.9025 14.0934 12.9025Z"/>
</svg>

<svg viewBox="0 0 24 24" xmlns="http://www.w3.org/2000/svg" data-title="DeliveryOutline" fill="currentColor" stroke="none">
  <path fill-rule="evenodd" d="m11.32,16.33h6.25c1.31,0,2.37-1.05,2.37-2.35v-6.19c0-1.3-1.06-2.35-2.37-2.35h-6.25c-1.31,0-2.37,1.05-2.37,2.35v6.19c0,1.3,1.06,2.35,2.37,2.35Zm-.4-8.54c0-.22.18-.4.4-.4h6.25c.23,0,.4.18.4.4v6.19c0,.22-.18.4-.4.4h-6.25c-.23,0-.4-.18-.4-.4v-6.19Z"/>
  <path fill-rule="evenodd" d="m21.73,20.18l-1.65-1.67h0c-.44-.44-1.03-.69-1.66-.69h-9.68c-.16-.65-.51-1.25-1.03-1.71-.28-.25-.61-.44-.96-.59V4.36c0-.62-.25-1.22-.69-1.67-.44-.44-1.05-.69-1.68-.69h-1.38c-.55,0-.99.44-.99.98s.44.97.98.97h1.38c.11,0,.21.04.28.12.08.07.12.17.12.28v10.98c-.68.13-1.3.46-1.79.96-.61.62-.95,1.47-.95,2.34s.34,1.71.95,2.34c.61.62,1.44,1,2.33,1.02.88.03,1.73-.27,2.39-.86.42-.37.72-.84.91-1.36h9.79c.1,0,.2.04.28.12l1.64,1.66c.38.38,1,.39,1.39,0,.38-.37.39-.99,0-1.38h.02Zm-16.36-.13c-.37-.02-.72-.17-.98-.43-.26-.27-.4-.62-.4-.98s.14-.72.4-.98.61-.42.98-.43c.37-.02.73.12,1.01.36.28.24.44.58.47.95v.22c-.03.37-.2.7-.47.95-.28.24-.63.37-1.01.36Z"/>
  <path fill-rule="evenodd" d="m14.09,12.9h1.38c.54,0,.98-.43.98-.97s-.44-.97-.98-.97h-1.38c-.54,0-.98.43-.98.97s.44.97.98.97Z"/>
</svg>
